imagenes/instagram.svg

<svg width="92" height="92" viewBox="0 0 92 92" fill="none" xmlns="http://www.w3.org/2000/svg">
<path d="M27.1818 0C12.1952 0 0 12.1952 0 27.1818V64.8182C0 79.8048 12.1952 92 27.1818 92H64.8182C79.8048 92 92 79.8048 92 64.8182V27.1818C92 12.1952 79.8048 0 64.8182 0H27.1818ZM27.1818 4.18182H64.8182C77.5445 4.18182 87.8182 14.4555 87.8182 27.1818V64.8182C87.8182 77.5445 77.5445 87.8182 64.8182 87.8182H27.1818C14.4555 87.8182 4.18182 77.5445 4.18182 64.8182V27.1818C4.18182 14.4555 14.4555 4.18182 27.1818 4.18182ZM71.0909 16.7273C69.9818 16.7273 68.9182 17.1679 68.1339 17.9521C67.3497 18.7363 66.9091 19.8 66.9091 20.9091C66.9091 22.0182 67.3497 23.0818 68.1339 23.8661C68.9182 24.6503 69.9818 25.0909 71.0909 25.0909C72.2 25.0909 73.2637 24.6503 74.0479 23.8661C74.8321 23.0818 75.2727 22.0182 75.2727 20.9091C75.2727 19.8 74.8321 18.7363 74.0479 17.9521C73.2637 17.1679 72.2 16.7273 71.0909 16.7273ZM46 23C33.3222 23 23 33.3222 23 46C23 58.6778 33.3222 69 46 69C58.6778 69 69 58.6778 69 46C69 33.3222 58.6778 23 46 23ZM46 27.1818C56.4178 27.1818 64.8182 35.5822 64.8182 46C64.8182 56.4178 56.4178 64.8182 46 64.8182C35.5822 64.8182 27.1818 56.4178 27.1818 46C27.1818 35.5822 35.5822 27.1818 46 27.1818Z" fill="#E43151"/>
</svg>

<svg width="92" height="92" fill="none" xmlns="http://www.w3.org/2000/svg"><path d="M27.182 0C12.195 0 0 12.195 0 27.182v37.636C0 79.805 12.195 92 27.182 92h37.636C79.805 92 92 79.805 92 64.818V27.182C92 12.195 79.805 0 64.818 0H27.182Zm0 4.182h37.636c12.727 0 23 10.274 23 23v37.636c0 12.727-10.273 23-23 23H27.182c-12.726 0-23-10.273-23-23V27.182c0-12.726 10.274-23 23-23ZM71.09 16.727a4.182 4.182 0 1 0 0 8.364 4.182 4.182 0 0 0 0-8.364ZM46 23c-12.678 0-23 10.322-23 23s10.322 23 23 23 23-10.322 23-23-10.322-23-23-23Zm0 4.182c10.418 0 18.818 8.4 18.818 18.818 0 10.418-8.4 18.818-18.818 18.818A18.787 18.787 0 0 1 27.182 46c0-10.418 8.4-18.818 18.818-18.818Z" fill="#E43151"/></svg>
